X:1
T:Jesu Rex admirabilis
T:attr. G.Pierluigi da Palestrina (tra febbraio 1525 e 1526? – Roma, 2 febbraio 1594)
T:Scritto con MuseScore, un software libero e gratuito: http://musescore.org/it
Z:Scritto con MuseScore, un software libero e gratuito: http://musescore.org/it
%%score 1 2 3
L:1/8
M:6/4
K:C
V:1 treble nm="Soprano"
V:2 treble nm="Alto"
V:3 treble nm="Kazoo"
V:1
 A4 A2 G2 c2 B2 |[M:4/4] A3 A A2 F2 | E2 A2 G2 F2 | E3 E E4 | z4 A4 |[M:6/4] B4 B4 c2 A2 | %6
w: Je su Rex ad\- mi\-|ra\- bi\- lis et|tri\- um\- pha\- tor|no\- bi\- lis;|dul|ce do i- nef\-|
 G3 G G8 |[M:4/4] z2!mf! c2 c2 B2 | A3 A A2 G2 | !breath!F2 F2 F2 E2 | D3 D D2 ^C2 | D4 x4 :| %12
w: fa\- bi\- lis,|to\- tus de\-|si\- de\- ra\- bi\-|lis, to\- tus de\-|si\- de\- ra\- bi\-|lis.|
V:2
 F4 E2 D2 E2 E2 |[M:4/4] F3 F F2 A2 | G2 F2 E2 D2 | ^C3 C C4 | z4 E4 |[M:6/4] ^G4 G4 A2 F2 | %6
w: Je su Rex ad\- mi\-|ra\- bi\- lis et|tri\- um\- pha\- tor|no\- bi\- lis;|dul|ce do i- nef\-|
 E3 E !breath!E2!mf! E2 E2 D2 |[M:4/4] E3 E E2 E2 | F4 z4 | A4 A2 G2 | F3 F F2 E2 | D4 x4 :| %12
w: fa\- bi\- lis, to\- tus de\-|si\- de\- ra\- bi\-|lis,|to\- tus de\-|si\- de\- ra\- bi\-|lis.|
V:3
 d4 c2 B2 A2 G2 |[M:4/4] F3 F F2 F2 |!mf! c2 F2 G2 G2 | A3 A A4 | z4 A4 |[M:6/4] E4 E4 A2 A2 | %6
w: Je su Rex ad\- mi\-|ra\- bi\- lis et|tri\- um\- pha\- tor|no\- bi\- lis;|dul|ce do i- nef\-|
 c3 C !breath!C2 c2 c2 B2 |[M:4/4] A3 A A2 G2 | !breath!F2 F2 F2 E2 | D4 C4 | DEFG A3 A | D4 x4 :| %12
w: fa\- bi\- lis, to\- tus de\-|si\- de\- ra\- bi\-|lis, to\- tus de\-|si\- de\-|ra * * * \- bi\-|lis.|

